ulm-stories/assets/img/icons/svg/lineartwork/allMessages.svg

<?xml version="1.0" encoding="utf-8"?>
<!-- Generator: Adobe Illustrator 16.0.0, SVG Export Plug-In . SVG Version: 6.00 Build 0)  -->
<!DOCTYPE svg PUBLIC "-//W3C//DTD SVG 1.1//EN" "http://www.w3.org/Graphics/SVG/1.1/DTD/svg11.dtd">
<svg version="1.1" id="Ebene_1" xmlns="http://www.w3.org/2000/svg" xmlns:xlink="http://www.w3.org/1999/xlink" x="0px" y="0px"
	 width="300px" height="300px" viewBox="0 0 300 300" enable-background="new 0 0 300 300" xml:space="preserve">
<g>
	<path fill="none" stroke="#000000" stroke-width="10" stroke-miterlimit="10" d="M252,116c0,0,5.175,0,11.5,0s11.5,6.05,11.5,13.75
		v107c0,7.7-6.3,14.25-14,14.25H39c-7.7,0-14-6.55-14-14.25v-107c0-7.7,4.95-13.75,11-13.75s11,0,11,0"/>
</g>
<g>
	<path fill="none" stroke="#000000" stroke-width="10" stroke-miterlimit="10" d="M252,157V74.25C252,60.5,241.25,49,227.5,49h-155
		C58.75,49,47,60.5,47,74.25V156"/>
</g>
<line fill="none" stroke="#000000" stroke-width="9" stroke-miterlimit="10" x1="276" y1="149.769" x2="149" y2="183.25"/>
<line fill="none" stroke="#000000" stroke-width="9" stroke-miterlimit="10" x1="24" y1="149.603" x2="151" y2="183.25"/>
<path fill="none" stroke="#FFFFFF" stroke-miterlimit="10" d="M52.766,162.391"/>
<path fill="none" stroke="#FFFFFF" stroke-miterlimit="10" d="M41.141,159.313"/>
<g>
	<path d="M220,86c0,1.65-1.8,3-4,3H84c-2.2,0-4-1.35-4-3s1.8-3,4-3h132C218.2,83,220,84.35,220,86z"/>
	<path fill="none" stroke="#000000" stroke-width="4" stroke-miterlimit="10" d="M220,86c0,1.65-1.8,3-4,3H84c-2.2,0-4-1.35-4-3
		s1.8-3,4-3h132C218.2,83,220,84.35,220,86z"/>
</g>
<g>
	<path d="M220,122c0,1.65-1.8,3-4,3H84c-2.2,0-4-1.35-4-3s1.8-3,4-3h132C218.2,119,220,120.35,220,122z"/>
	<path fill="none" stroke="#000000" stroke-width="4" stroke-miterlimit="10" d="M220,122c0,1.65-1.8,3-4,3H84c-2.2,0-4-1.35-4-3
		s1.8-3,4-3h132C218.2,119,220,120.35,220,122z"/>
</g>
</svg>

<?xml version="1.0" encoding="UTF-8" standalone="no"?>
<!DOCTYPE svg PUBLIC "-//W3C//DTD SVG 1.1//EN" "http://www.w3.org/Graphics/SVG/1.1/DTD/svg11.dtd">
<svg width="100%" height="100%" viewBox="0 0 300 300" version="1.1" xmlns="http://www.w3.org/2000/svg" xmlns:xlink="http://www.w3.org/1999/xlink" xml:space="preserve" xmlns:serif="http://www.serif.com/" style="fill-rule:evenodd;clip-rule:evenodd;stroke-miterlimit:10;">
    <g>
        <path d="M252,116L263.5,116C269.825,116 275,122.05 275,129.75L275,236.75C275,244.45 268.7,251 261,251L39,251C31.3,251 25,244.45 25,236.75L25,129.75C25,122.05 29.95,116 36,116L47,116" style="fill:none;fill-rule:nonzero;stroke:black;stroke-width:10px;"/>
        <path d="M252,157L252,74.25C252,60.5 241.25,49 227.5,49L72.5,49C58.75,49 47,60.5 47,74.25L47,156" style="fill:none;fill-rule:nonzero;stroke:black;stroke-width:10px;"/>
        <path d="M276,149.769L149,183.25" style="fill:none;fill-rule:nonzero;stroke:black;stroke-width:9px;"/>
        <path d="M24,149.603L151,183.25" style="fill:none;fill-rule:nonzero;stroke:black;stroke-width:9px;"/>
        <path d="M220,122C220,123.65 218.2,125 216,125L84,125C81.8,125 80,123.65 80,122C80,120.35 81.8,119 84,119L216,119C218.2,119 220,120.35 220,122Z" style="fill-rule:nonzero;"/>
        <path d="M220,122C220,123.65 218.2,125 216,125L84,125C81.8,125 80,123.65 80,122C80,120.35 81.8,119 84,119L216,119C218.2,119 220,120.35 220,122Z" style="fill:none;fill-rule:nonzero;stroke:black;stroke-width:4px;"/>
        <path d="M220,86C220,87.65 218.2,89 216,89L84,89C81.8,89 80,87.65 80,86C80,84.35 81.8,83 84,83L216,83C218.2,83 220,84.35 220,86Z" style="fill-rule:nonzero;"/>
        <path d="M220,86C220,87.65 218.2,89 216,89L84,89C81.8,89 80,87.65 80,86C80,84.35 81.8,83 84,83L216,83C218.2,83 220,84.35 220,86Z" style="fill:none;fill-rule:nonzero;stroke:black;stroke-width:4px;"/>
    </g>
</svg>
